X: 29110
T: Nell O'Sullivan's
R: slide
M: 12/8
K: Dmajor
Bcd A2F A3 A3|Bcd A2F E3 E2D|
Bcd A2F A3 A3|ABd e2f d3 d3:|
f2e def a3 a3|g2f e2f g3 g3|
f2e def a3 a3|efg f2e d3 d3:|

